X:50
T:Italiaanse Mazurka
R:Mazurka
Z:Bert Van Vreckem, 2004-06-26 <http://flanders.blackmill.net/music/>
M:3/4
L:1/4
K:G
"G"G/A/ B/c/ d/e/|"D"d d>e|d d c|"G"c B2|\
"Em"G/B/ d/e/ d/c/|"Am"B A2|"D"A/B/ c/d/ c/B/|"G"A G2|
"G"G/A/ B/c/ d/e/|"D"d d>e|d d c|"G"c B2|\
"Em"G/B/ d/e/ d/c/|"Am"B A A/4B/4c/|"D"d d/c/ B/A/|"G"G G z||
|:"G"d/B/ G/B/ G/B/|d/B/ G/B/ G/B/|"D"c/A/ F/A/ F/A/|c/A/ F/A/ F/A/|\
"G"d/B/ G/B/ G/B/|d/B/ G/B/ G/B/|"Am"e e2|"D"(3d/e/d/ (3c/d/c/ B/4c/4B/4A/4|"G"G G z:|

